<?xml version="1.0" encoding="utf-8"?>
<map xmlns:xsd="http://www.w3.org/2001/XMLSchema" xmlns:xsi="http://www.w3.org/2001/XMLSchema-instance" version="1.2" tiledversion="1.2.4" orientation="orthogonal" renderorder="right-down" width="32" height="10" tilewidth="16" tileheight="16" hexsidelength="0" infinite="0" nextlayerid="6" nextobjectid="1">
  <properties />
  <tileset firstgid="1" source="../Actors.tsx" />
  <tileset firstgid="257" source="../Blocks.tsx" />
  <tileset firstgid="513" source="Tabas_1.tileset.tsx" />
  <layer id="1" name="map" width="32" height="10">
    <data encoding="csv">
513,514,515,516,517,518,519,520,521,522,523,524,525,526,526,526,526,526,527,528,529,526,530,531,532,533,534,535,536,537,538,539,
526,540,541,542,543,544,545,546,547,548,549,550,526,526,551,552,553,526,526,526,554,529,526,555,556,557,558,559,560,561,562,563,
564,526,526,565,566,526,526,526,567,568,569,570,571,572,573,574,575,576,550,526,577,578,579,530,580,581,533,582,583,526,526,526,
584,585,586,587,526,588,589,590,591,592,593,594,595,596,597,598,526,526,526,526,599,600,601,526,526,602,603,526,526,526,526,526,
526,526,526,604,605,606,607,608,609,610,611,612,526,613,614,614,614,615,616,617,618,619,526,616,620,526,621,622,526,623,624,624,
625,526,526,626,627,628,629,630,631,632,633,634,526,635,636,637,638,639,640,641,642,526,526,526,526,526,526,643,644,645,646,647,
648,649,614,614,650,526,526,651,652,653,654,655,656,657,658,659,660,661,662,663,664,665,666,667,614,668,669,670,671,672,673,674,
675,676,677,678,679,680,681,682,683,684,685,686,687,688,689,690,691,692,693,694,695,696,697,698,699,700,701,702,703,704,705,706,
707,708,709,710,711,712,713,714,715,716,717,718,719,720,721,722,723,724,725,726,727,728,729,730,731,732,733,734,735,736,737,738,
739,740,741,742,743,744,745,746,747,748,749,750,751,752,753,754,755,756,757,758,759,760,761,762,763,764,765,766,767,768,769,770
</data>
    <properties>
      <property name="amiga_aga" type="bool" value="true" />
      <property name="foreground" type="bool" value="False" />
    </properties>
  </layer>
  <layer id="2" name="blocks" width="32" height="10">
    <data encoding="csv">
0,0,0,0,0,0,0,0,0,0,0,0,0,0,0,0,0,0,0,0,0,0,0,0,0,0,0,0,0,0,0,0,
0,0,0,0,0,0,0,0,0,0,0,0,0,0,0,0,0,0,0,0,0,0,0,0,0,0,0,0,0,0,0,0,
0,0,0,0,0,0,0,0,0,0,0,0,0,0,0,0,0,0,0,0,0,0,0,0,0,0,0,0,0,0,0,0,
0,0,0,0,0,0,0,0,0,0,0,0,0,0,0,0,0,0,0,0,0,0,0,0,0,0,0,0,0,0,0,0,
0,0,0,0,0,0,0,0,0,0,0,0,0,0,0,0,0,0,0,0,0,0,0,0,0,0,0,0,0,0,0,0,
0,0,0,0,0,0,0,0,0,0,0,0,0,0,0,0,0,0,0,0,0,0,0,0,0,0,0,0,0,0,0,0,
0,0,0,0,0,0,0,0,0,0,0,0,0,0,0,0,0,0,0,0,0,0,0,0,0,0,0,0,0,0,0,0,
0,0,0,0,0,0,0,0,0,0,0,0,0,0,0,0,0,0,0,0,0,0,0,0,0,0,0,0,0,0,0,0,
0,0,0,0,0,0,0,0,0,0,0,0,0,0,0,0,0,0,0,0,0,0,0,0,0,0,0,0,0,0,0,0,
0,0,0,0,0,0,0,0,0,0,0,0,0,0,0,0,0,0,0,0,0,0,0,0,0,0,0,0,0,0,0,0
</data>
    <properties>
      <property name="amiga_aga" type="bool" value="true" />
      <property name="foreground" type="bool" value="False" />
    </properties>
  </layer>
  <layer id="3" name="actors" width="32" height="10">
    <data encoding="csv">
0,0,0,0,0,0,0,0,0,0,0,0,0,0,0,0,0,0,0,0,0,0,0,0,0,0,0,0,0,0,0,0,
0,0,0,0,0,0,0,0,0,0,0,0,0,0,0,0,0,0,0,0,0,0,0,0,0,0,0,0,0,0,0,0,
0,0,0,0,0,0,0,0,0,0,0,0,0,0,0,0,0,0,0,0,0,0,0,0,0,0,0,0,0,0,0,0,
0,0,0,0,0,0,0,0,0,0,0,0,0,0,0,0,0,0,0,0,0,0,0,0,0,0,0,0,0,0,0,0,
0,0,0,0,0,0,0,0,0,0,0,0,0,0,0,0,0,0,0,0,0,0,0,0,0,0,0,0,0,0,0,0,
0,0,0,0,0,0,0,0,0,0,0,0,0,0,0,0,0,0,0,0,0,0,0,0,0,0,0,0,0,0,0,0,
0,0,0,0,0,0,0,0,0,0,0,0,0,0,0,0,0,0,0,0,0,0,0,0,0,0,0,0,0,0,0,0,
0,0,0,0,0,0,0,0,0,0,0,0,0,0,0,0,0,0,0,0,0,0,0,0,0,0,0,0,0,0,0,0,
0,0,0,0,0,0,0,0,0,0,0,0,0,0,0,0,0,0,0,0,0,0,0,0,0,0,0,0,0,0,0,0,
0,0,0,0,0,0,0,0,0,0,0,0,0,0,0,0,0,0,0,0,0,0,0,0,0,0,0,0,0,0,0,0
</data>
    <properties>
      <property name="amiga_aga" type="bool" value="true" />
      <property name="foreground" type="bool" value="False" />
    </properties>
  </layer>
  <layer id="4" name="foreground" width="32" height="10">
    <data encoding="csv">
0,0,0,0,0,0,0,0,0,0,0,0,0,0,0,0,0,0,0,0,0,0,0,0,0,0,0,0,0,0,0,0,
0,0,0,0,0,0,0,0,0,0,0,0,0,0,0,0,0,0,0,0,0,0,0,0,0,0,0,0,0,0,0,0,
0,0,0,0,0,0,0,0,0,0,0,0,0,0,0,0,0,0,0,0,0,0,0,0,0,0,0,0,0,0,0,0,
0,0,0,0,0,0,0,0,0,0,0,0,0,0,0,0,0,0,0,0,0,0,0,0,0,0,0,0,0,0,0,0,
0,0,0,0,0,0,0,0,0,0,0,0,0,0,0,0,0,0,0,0,0,0,0,0,0,0,0,0,0,0,0,0,
0,0,0,0,0,0,0,0,0,0,0,0,0,0,0,0,0,0,0,0,0,0,0,0,0,0,0,0,0,0,0,0,
0,0,0,0,0,0,0,0,0,0,0,0,0,0,0,0,0,0,0,0,0,0,0,0,0,0,0,0,0,0,0,0,
0,0,0,0,0,0,0,0,0,0,0,0,0,0,0,0,0,0,0,0,0,0,0,0,0,0,0,0,0,0,0,0,
0,0,0,0,0,0,0,0,0,0,0,0,0,0,0,0,0,0,0,0,0,0,0,0,0,0,0,0,0,0,0,0,
0,0,0,0,0,0,0,0,0,0,0,0,0,0,0,0,0,0,0,0,0,0,0,0,0,0,0,0,0,0,0,0
</data>
    <properties>
      <property name="amiga_aga" type="bool" value="true" />
      <property name="foreground" type="bool" value="True" />
    </properties>
  </layer>
  <objectgroup id="0" name="events" />
</map>