<?xml version="1.0" encoding="utf-8"?>
<map xmlns:xsd="http://www.w3.org/2001/XMLSchema" xmlns:xsi="http://www.w3.org/2001/XMLSchema-instance" version="1.2" tiledversion="1.2.4" orientation="orthogonal" renderorder="right-down" width="31" height="10" tilewidth="16" tileheight="16" hexsidelength="0" infinite="0" nextlayerid="6" nextobjectid="1">
  <properties />
  <tileset firstgid="1" source="../Actors.tsx" />
  <tileset firstgid="257" source="../Blocks.tsx" />
  <tileset firstgid="513" source="Tabas_2.tileset.tsx" />
  <layer id="1" name="map" width="31" height="10">
    <data encoding="csv">
513,514,515,515,515,516,517,518,519,520,521,515,515,522,523,524,525,526,527,528,529,515,530,531,532,533,534,535,536,537,538,
539,540,541,542,543,515,515,515,515,515,520,544,545,546,515,515,547,548,549,515,515,550,551,552,553,554,555,556,515,515,515,
515,557,558,517,559,560,515,515,515,515,515,515,515,515,515,515,515,515,561,562,515,515,515,515,515,515,563,564,565,566,567,
568,569,570,571,515,568,572,573,515,515,574,575,515,515,515,515,515,515,576,577,515,515,515,515,578,579,580,581,582,583,584,
585,586,587,588,589,590,591,592,515,515,593,594,515,515,515,515,515,595,596,597,515,598,599,600,601,602,603,604,515,605,606,
607,608,609,610,611,612,613,614,615,616,617,515,618,619,515,515,515,515,620,621,622,515,623,624,625,626,627,628,629,630,631,
632,633,634,635,636,637,638,639,640,515,641,642,643,644,645,646,647,648,649,650,651,652,653,654,655,656,657,658,659,660,661,
662,663,664,665,666,667,668,669,670,671,672,673,674,675,676,677,678,679,680,681,682,683,684,685,686,687,688,689,690,691,692,
693,694,695,696,697,698,699,700,701,702,703,704,705,706,707,708,709,710,711,712,713,714,715,716,717,718,719,720,721,722,723,
724,725,726,727,728,729,730,731,732,733,734,735,736,737,738,739,740,741,742,743,744,745,746,747,748,749,750,751,752,753,754
</data>
    <properties>
      <property name="amiga_aga" type="bool" value="true" />
      <property name="foreground" type="bool" value="False" />
    </properties>
  </layer>
  <layer id="2" name="blocks" width="31" height="10">
    <data encoding="csv">
0,0,0,0,0,0,0,0,0,0,0,0,0,0,0,0,0,0,0,0,0,0,0,0,0,0,0,0,0,0,0,
0,0,0,0,0,0,0,0,0,0,0,0,0,0,0,0,0,0,0,0,0,0,0,0,0,0,0,0,0,0,0,
0,0,0,0,0,0,0,0,0,0,0,0,0,0,0,0,0,0,0,0,0,0,0,0,0,0,0,0,0,0,0,
0,0,0,0,0,0,0,0,0,0,0,0,0,0,0,0,0,0,0,0,0,0,0,0,0,0,0,0,0,0,0,
0,0,0,0,0,0,0,0,0,0,0,0,0,0,0,0,0,0,0,0,0,0,0,0,0,0,0,0,0,0,0,
0,0,0,0,0,0,0,0,0,0,0,0,0,0,0,0,0,0,0,0,0,0,0,0,0,0,0,0,0,0,0,
0,0,0,0,0,0,0,0,0,0,0,0,0,0,0,0,0,0,0,0,0,0,0,0,0,0,0,0,0,0,0,
0,0,0,0,0,0,0,0,0,0,0,0,0,0,0,0,0,0,0,0,0,0,0,0,0,0,0,0,0,0,0,
0,0,0,0,0,0,0,0,0,0,0,0,0,0,0,0,0,0,0,0,0,0,0,0,0,0,0,0,0,0,0,
0,0,0,0,0,0,0,0,0,0,0,0,0,0,0,0,0,0,0,0,0,0,0,0,0,0,0,0,0,0,0
</data>
    <properties>
      <property name="amiga_aga" type="bool" value="true" />
      <property name="foreground" type="bool" value="False" />
    </properties>
  </layer>
  <layer id="3" name="actors" width="31" height="10">
    <data encoding="csv">
0,0,0,0,0,0,0,0,0,0,0,0,0,0,0,0,0,0,0,0,0,0,0,0,0,0,0,0,0,0,0,
0,0,0,0,0,0,0,0,0,0,0,0,0,0,0,0,0,0,0,0,0,0,0,0,0,0,0,0,0,0,0,
0,0,0,0,0,0,0,0,0,0,0,0,0,0,0,0,0,0,0,0,0,0,0,0,0,0,0,0,0,0,0,
0,0,0,0,0,0,0,0,0,0,0,0,0,0,0,0,0,0,0,0,0,0,0,0,0,0,0,0,0,0,0,
0,0,0,0,0,0,0,0,0,0,0,0,0,0,0,0,0,0,0,0,0,0,0,0,0,0,0,0,0,0,0,
0,0,0,0,0,0,0,0,0,0,0,0,0,0,0,0,0,0,0,0,0,0,0,0,0,0,0,0,0,0,0,
0,0,0,0,0,0,0,0,0,0,0,0,0,0,0,0,0,0,0,0,0,0,0,0,0,0,0,0,0,0,0,
0,0,0,0,0,0,0,0,0,0,0,0,0,0,0,0,0,0,0,0,0,0,0,0,0,0,0,0,0,0,0,
0,0,0,0,0,0,0,0,0,0,0,0,0,0,0,0,0,0,0,0,0,0,0,0,0,0,0,0,0,0,0,
0,0,0,0,0,0,0,0,0,0,0,0,0,0,0,0,0,0,0,0,0,0,0,0,0,0,0,0,0,0,0
</data>
    <properties>
      <property name="amiga_aga" type="bool" value="true" />
      <property name="foreground" type="bool" value="False" />
    </properties>
  </layer>
  <layer id="4" name="foreground" width="31" height="10">
    <data encoding="csv">
0,0,0,0,0,0,0,0,0,0,0,0,0,0,0,0,0,0,0,0,0,0,0,0,0,0,0,0,0,0,0,
0,0,0,0,0,0,0,0,0,0,0,0,0,0,0,0,0,0,0,0,0,0,0,0,0,0,0,0,0,0,0,
0,0,0,0,0,0,0,0,0,0,0,0,0,0,0,0,0,0,0,0,0,0,0,0,0,0,0,0,0,0,0,
0,0,0,0,0,0,0,0,0,0,0,0,0,0,0,0,0,0,0,0,0,0,0,0,0,0,0,0,0,0,0,
0,0,0,0,0,0,0,0,0,0,0,0,0,0,0,0,0,0,0,0,0,0,0,0,0,0,0,0,0,0,0,
0,0,0,0,0,0,0,0,0,0,0,0,0,0,0,0,0,0,0,0,0,0,0,0,0,0,0,0,0,0,0,
0,0,0,0,0,0,0,0,0,0,0,0,0,0,0,0,0,0,0,0,0,0,0,0,0,0,0,0,0,0,0,
0,0,0,0,0,0,0,0,0,0,0,0,0,0,0,0,0,0,0,0,0,0,0,0,0,0,0,0,0,0,0,
0,0,0,0,0,0,0,0,0,0,0,0,0,0,0,0,0,0,0,0,0,0,0,0,0,0,0,0,0,0,0,
0,0,0,0,0,0,0,0,0,0,0,0,0,0,0,0,0,0,0,0,0,0,0,0,0,0,0,0,0,0,0
</data>
    <properties>
      <property name="amiga_aga" type="bool" value="true" />
      <property name="foreground" type="bool" value="True" />
    </properties>
  </layer>
  <objectgroup id="0" name="events" />
</map>